X:298
T: ES WOLLT EIN FRAU ZUM WEINE GAHN
N: E0899
O: Europa, Mitteleuropa, Deutschland
R: Ehestands - Lied
M: 3/4
L: 1/4
K: G
G | G2G | A2B | c2c | A2
c | BAB | GG
G | d2d | d2d | c2B | A2
d | A2A | A2B | cBA | G2
G | Bcd | cA2 | G2

